picto/toilets.svg

<svg class="color-immutable" width="24" height="24" viewBox="0 0 24 24" fill="none" xmlns="http://www.w3.org/2000/svg"><g clip-path="url(#a)"><path d="M0 22.5v-21C0 .675.675 0 1.5 0h21c.825 0 1.5.675 1.5 1.5v21c0 .825-.675 1.5-1.5 1.5h-21C.675 24 0 23.325 0 22.5Z" fill="#2D327D"/><path d="M13.224 12.755 10.991 21H9.186l-1.427-5.888L6.377 21H4.55l-2.199-8.245h1.81l1.325 6.057 1.449-6.057h1.703l1.449 6.012 1.342-6.012h1.795ZM21.221 17.819c-.06.853-.346 1.583-.857 2.188-.669.793-1.617 1.19-2.842 1.19-1.305 0-2.32-.461-3.045-1.382-.62-.786-.931-1.767-.931-2.944 0-1.233.368-2.261 1.105-3.085.737-.82 1.716-1.229 2.938-1.229 1.139 0 2.057.376 2.752 1.128.496.53.771 1.141.823 1.833h-1.776c-.098-.466-.306-.826-.626-1.08-.32-.254-.724-.381-1.213-.381-.782 0-1.367.329-1.754.987-.29.5-.434 1.113-.434 1.839 0 .744.152 1.365.457 1.861.387.635.961.953 1.72.953.541 0 .973-.16 1.294-.479.321-.32.52-.786.595-1.399h1.794Z" fill="#fff"/></g><defs><clipPath id="a"><path fill="#fff" d="M0 0h24v24H0z"/></clipPath></defs></svg>

<svg class="color-immutable" width="24" height="24" viewBox="0 0 24 24" fill="none" xmlns="http://www.w3.org/2000/svg"><path d="M0 22.5V1.5C0 0.675 0.675 0 1.5 0H22.5C23.325 0 24 0.675 24 1.5V22.5C24 23.325 23.325 24 22.5 24H1.5C0.675 24 0 23.325 0 22.5Z" fill="#2D327D"/><path d="M13.224 12.755L10.991 21H9.18601L7.75901 15.112L6.37701 21H4.55001L2.35101 12.755H4.16101L5.48601 18.812L6.93501 12.755H8.63801L10.087 18.767L11.429 12.755H13.224Z" fill="white"/><path d="M21.221 17.819C21.161 18.672 20.875 19.402 20.364 20.007C19.695 20.8 18.747 21.197 17.522 21.197C16.217 21.197 15.202 20.736 14.477 19.815C13.857 19.029 13.546 18.048 13.546 16.871C13.546 15.638 13.914 14.61 14.651 13.786C15.388 12.966 16.367 12.557 17.589 12.557C18.728 12.557 19.646 12.933 20.341 13.685C20.837 14.215 21.112 14.826 21.164 15.518H19.388C19.29 15.052 19.082 14.692 18.762 14.438C18.442 14.184 18.038 14.057 17.549 14.057C16.767 14.057 16.182 14.386 15.795 15.044C15.505 15.544 15.361 16.157 15.361 16.883C15.361 17.627 15.513 18.248 15.818 18.744C16.205 19.379 16.779 19.697 17.538 19.697C18.079 19.697 18.511 19.537 18.832 19.218C19.153 18.898 19.352 18.432 19.427 17.819H21.221Z" fill="white"/></svg>
